resources/svg/desklamp.svg

<svg xmlns="http://www.w3.org/2000/svg" viewBox="0 0 15 15" fill="currentColor"><path d="M6.85356 1.14648L8.73823 3.03115C10.3915 2.33773 12.3711 2.66405 13.7172 4.01011C13.9878 4.28069 13.9878 4.71937 13.7172 4.98995L7.98992 10.7172C7.71935 10.9878 7.28066 10.9878 7.01009 10.7172C5.66403 9.37116 5.33771 7.39151 6.03113 5.73826L5.04695 4.75408L2.16567 8.45859L7.70711 14H13V15H2V14H6.2929L1.14645 8.85358C0.968146 8.67528 0.950516 8.3921 1.10533 8.19306L4.33434 4.04147L4.14645 3.85358C3.39891 3.10604 3.3989 1.89402 4.14645 1.14648C4.894 0.398929 6.10601 0.398929 6.85356 1.14648Z" fill="black"/></svg>

<svg xmlns="http://www.w3.org/2000/svg" viewBox="0 0 15 15" fill="currentColor"><path d="M6.854 1.146l1.884 1.885a4.551 4.551 0 014.98.98c.27.27.27.708 0 .979L7.99 10.717c-.27.27-.71.27-.98 0a4.551 4.551 0 01-.979-4.979l-.984-.984L2.166 8.46 7.707 14H13v1H2v-1h4.293L1.146 8.854a.5.5 0 01-.04-.66L4.333 4.04l-.188-.187a1.914 1.914 0 112.708-2.708z" fill="currentColor"/></svg>
